X:1
T:Go and Tell Jesus
T:Go and Tell Jesus
T:Theodore Frelinghuysen Seward, 1864
T:Selina S. Gibbs, 1863
T:Public Domain Courtesy of the Cyber Hymnal™
T:Public Domain Courtesy of the Cyber Hymnal™
C:Theodore Frelinghuysen Seward, 1864
Z:Public Domain
Z:Courtesy of the Cyber Hymnal™
%%score ( 1 2 ) ( 3 4 )
L:1/8
Q:1/4=97
M:4/4
K:Ab
V:1 treble 
V:2 treble 
V:3 bass 
V:4 bass 
V:1
 [CE][CE] [CE]2 [CE]2 [Ec]2 | [DB][DA][DF][DA] [CE]3 [CE] | E[EF][EG][EA] [EB]2 (AG) | %3
w: 1.~Go and tell Je- sus,|wea- ry, sin- sick soul; He’ll|ease thee of thy bur- den, *|
w: 2.~Go and tell Je- sus,|when your sins a- rise, Like|mount- ains of deep guilt be- *|
w: 3.~Go and tell Je- sus,|He’ll dis- pel thy fears, Will|calm thy doubts, and wipe a- *|
 [EA]2 c2 [GB]4 | [CE]2 [CE][CE] [CE]2 [Ec]2 | [DB][DA][DF][DA] [CE]3 [CE] | [DF]2 [DF]2 E2 [EA]2 | %7
w: make thee whole;|Look up to Him, He|on- ly can for- give; Be-|lieve on Him, and|
w: fore your eyes;|His blood was spilt, His|pre- cious life He gave, That|mer- cy, peace and|
w: way your tears;|He’ll take thee in His|arms, and on His breast Thou|mayst be hap- py,|
 [EG][EA][EB][EG] [EA]4 ||"^Refrain" [GB][GB] [GB]2 [GB]2 [Ge][Bd] | [Ac][EB][EA][DF] [CE]4 | %10
w: thou shalt sure- ly live.|||
w: par- don you might have.|Go and tell Je- sus, He|on- ly can for- give;|
w: and for ev- er rest.|||
 [GB][GB] [GB]2 [GB]2 [Ge][Bd] | [Ac][EB][EA][DF] [CE]4 | [CE][CE] [CE]2 [CE]2 [CA]2 | %13
w: |||
w: Go and tell Je- sus, O|turn to Him and live;|Go and tell Je- sus,|
w: |||
 [DF][DF] [DF]2 [DF]2 !fermata![FA]2 | [EG][EG] [EG]2 [EA]2 [CE][EA] | [EG][EA][EB][EG] [EA]4 |] %16
w: |||
w: go and tell Je- sus,|Go and tell Je- sus, He|on- ly can for- give.|
w: |||
V:2
 x8 | x8 | E x4 E2 x | x2 (FA) x4 | x8 | x8 | x4 E2 x2 | x8 || x8 | x8 | x8 | x8 | x8 | x8 | x8 | %15
 x8 |] %16
V:3
 [A,,A,][A,,A,] [A,,A,]2 [A,,A,]2 [A,,A,]2 | [D,F,][D,F,][D,A,][F,A,] A,3 [A,,A,] | %2
 [E,G,][E,A,][E,B,][E,C] [E,D]2 (CB,) | [A,C]2 (A,C) [E,E]4 | A,2 A,A, A,2 [A,,A,]2 | %5
 [D,F,][D,F,][D,A,][F,A,] A,3 [A,,A,] | [D,A,]2 [D,A,]2 [C,A,]2 [A,,C]2 | %7
 [E,B,][E,C][E,D][E,B,] [A,,C]4 || [E,E][E,E] [E,E]2 [E,E]2 [E,B,][E,E] | [A,E][A,D][A,C]A, A,4 | %10
 [E,E][E,E] [E,E]2 [E,E]2 [E,B,][E,E] | [A,E][A,D][A,C]A, A,4 | %12
 [A,,A,][A,,A,] [A,,A,]2 [A,,A,]2 [A,,A,]2 | [D,A,][D,A,] [D,A,]2 [D,A,]2 !fermata![D,C]2 | %14
 [E,B,][E,B,] B,2 [C,A,]2 [A,,A,][C,A,] | [E,B,][E,C][E,D][E,B,] [A,,C]4 |] %16
V:4
 x8 | x4 A,3 x | x6 E,2 | x2 A,2 x4 | A,2 A,A, A,2 x2 | x4 A,3 x | x8 | x8 || x8 | x3 A, A,4 | x8 | %11
 x3 A, A,4 | x8 | x8 | x2 (E,D,) x4 | x8 |] %16

